X:1
T:Song of the Strong Heart Society (b)
T:Song of the Strong Heart Society (b)
T:Teton Sioux band 1911-1914
C:Teton Sioux band 1911-1914
L:1/8
Q:1/4=58
M:2/4
K:D
V:1 bass 
V:1
 F | (3FFF (3FED | (3FFE E>F | (3FED (3B,B,B, | (3CB,B, (3B,B,B, | (3CB,B, (3B,B,-B, |: %6
 (3FFE (3EEF ||[M:3/4] (3B,A,A, z2/3 (3:2:5A,A, A,A,B, | (3F,F,E, F,>E, E,>F, || %9
[M:2/4] E,2 B,, z/ F,/ | (3F,F,F, (3A,G,F, | (3F,F,F, (3F,E,C, | (3F,F,E, E,>F, | F,E, B,,>B,, | %14
 B,,4 | B,,3 :| %16

